src/lib/packages/icons/src/assets/line/graduation-cap.svg

<svg width="24" height="24" viewBox="0 0 24 24" fill="none" xmlns="http://www.w3.org/2000/svg">
<path d="M21.75 9.696C21.75 8.659 21.2059 7.74293 20.2959 7.24593L13.824 3.71492C12.683 3.09292 11.32 3.09192 10.176 3.71492L3.7041 7.24593C2.7941 7.74293 2.25 8.659 2.25 9.696C2.25 10.733 2.7941 11.649 3.7041 12.146L5.25 12.989V16.6989C5.25 17.6549 5.74004 18.533 6.56104 19.05C8.36603 20.185 10.183 20.753 12 20.753C13.817 20.753 15.635 20.186 17.439 19.05C18.259 18.534 18.75 17.6549 18.75 16.6989V12.989L20.25 12.171V16C20.25 16.414 20.586 16.75 21 16.75C21.414 16.75 21.75 16.414 21.75 16V9.99996C21.75 9.95796 21.7321 9.91996 21.7261 9.87996C21.7301 9.81696 21.75 9.76 21.75 9.696ZM17.25 16.6989C17.25 17.1289 17.0171 17.544 16.6411 17.78C13.5191 19.743 10.4841 19.744 7.36011 17.78C6.98411 17.544 6.75098 17.1289 6.75098 16.6989V13.807L10.177 15.676C10.748 15.988 11.374 16.144 12.001 16.144C12.628 16.144 13.254 15.988 13.825 15.676L17.251 13.807V16.6989H17.25ZM19.5769 10.8299L13.105 14.3609C12.414 14.7389 11.585 14.7389 10.894 14.3609L4.42212 10.8299C4.00012 10.5999 3.74902 10.177 3.74902 9.69698C3.74902 9.21698 4.00012 8.79392 4.42212 8.56392L10.894 5.03292C11.24 4.84492 11.62 4.74996 11.999 4.74996C12.378 4.74996 12.759 4.84492 13.104 5.03292L19.5759 8.56392C19.9979 8.79392 20.249 9.21698 20.249 9.69698C20.249 10.177 19.9989 10.5999 19.5769 10.8299Z" fill="currentColor"/>
</svg>

<svg xmlns="http://www.w3.org/2000/svg" width="24" height="24" fill="none"><path fill="currentColor" d="M21.75 9.696a2.755 2.755 0 0 0-1.454-2.45l-6.472-3.531a3.796 3.796 0 0 0-3.648 0l-6.472 3.53A2.755 2.755 0 0 0 2.25 9.697c0 1.037.544 1.953 1.454 2.45l1.546.843v3.71c0 .956.49 1.834 1.311 2.351 1.805 1.135 3.622 1.703 5.439 1.703 1.817 0 3.635-.567 5.439-1.703A2.77 2.77 0 0 0 18.75 16.7v-3.71l1.5-.818V16a.75.75 0 0 0 1.5 0v-6c0-.042-.018-.08-.024-.12.004-.063.024-.12.024-.184Zm-4.5 7.003c0 .43-.233.845-.609 1.081-3.122 1.963-6.157 1.964-9.28 0a1.293 1.293 0 0 1-.61-1.081v-2.892l3.426 1.869a3.798 3.798 0 0 0 3.648 0l3.426-1.869v2.892h-.001Zm2.327-5.87-6.472 3.532a2.297 2.297 0 0 1-2.211 0L4.422 10.83a1.272 1.272 0 0 1-.673-1.133c0-.48.251-.903.673-1.133l6.472-3.531a2.314 2.314 0 0 1 1.105-.283c.379 0 .76.095 1.105.283l6.472 3.53c.422.23.673.654.673 1.134 0 .48-.25.903-.672 1.133Z"/></svg>
